X: 148
T: Açılan Bir Gül Gibi
C: Dramalı Hasan Hasgüler
O: Turkey
F: http://compmusic.upf.edu/node/140
N: rast--sarki--sofyan--acilan_bir--dramali_hasan_hasguler
N: makam= rast
N: form= sarki
N: usul= sofyan = 4/4
M: 4/4
L: 1/16
K: C _1/4B ^f  
Q: 1/4=102
%%MIDI tuningsystem comma53
c2de cdBc A4 z4  | B2cd BcAB G4 z4  | \
w:  ARANAĞME  |   | 
D2G4A2 B4 c4  | 
w:   | 
d2c2 B2^A2 B4 z4  | c2de cdBc A4 z4  | \
w:   |   | 
B2cd BcAB G4 z4  | 
w:   | 
d2g2 =f2e2 d2c2 B2A2  | d2c2 B2A2 G8  | \
w:   |   | 
c2de cdBc A4 z4  | 
w:  ARANAĞME  | 
B2cd BcAB G4 z4  | D2G4A2 B4 c4  | d2c2 B2^A2 B4 z4  | \
w:   |   |   | 
c2de cdBc A4 z4  | 
w:   | 
B2cd BcAB G4 z4  | d2g2 =f2e2 d2c2 B2A2  | \
w:   |   | 
d2c2 B2A2 G4 D2EF  | 
w:   | 
G4 G2G2 G4 A4  | B2A4G2 B4 z4  | d4 d4 d4 z2B2  | \
w:  *  A çı lan  bir   |  gül  *  gi bi    |  Gir  kal be  gö  | 
c2c2 B2A2 G2G2 F2E2  | 
w:  nül  *  gi *  bi    | 
D4 G2G2 G4 A4  | B2A4G2 B4 z4  | d4 d4 d4 z2B2  | \
w:  *  A çı lan  bir   |  gül  *  gi bi    |  Gir  kal be  gö  | 
c2c2 B2A2 G4 GABc  | 
w:  nül  *  gi *  bi    | 
d4 B2c2 d4 d4  | g2e4d2 d8  | z2A4B2 c4 c4  | \
w:  *  Co şa rım  sen   |  gü ler *  sen    |  Ağ la rım  ben   | 
c2d2 c2d2 dcB^A B4  | 
w:  kü ser *  *  sen    | 
z4 B2c2 d4 d4  | g2e4d2 d8  | z2A4B2 c4 B4  | \
w:  Co şa rım  sen   |  gü ler *  sen    |  Ağ la rım  ben   | 
A2G4d2 d4 z4  | e4 c2B2 A4 z4  | 
w:  kü ser *  sen    |  Kal bi me  gir   | 
B2c2 B2A2 G4 z4  | D2G4A2 B4 c4  | d2d2 c2B2 B4 z4  | \
w:  ba har  *  *  ol    |  Yü re *  ğim  ta  |  ze len *  *  sin    | 
e4 c2B2 A4 z4  | 
w:  Kal bi me  gir   | 
B2c2 B2A2 G4 g4  | g2g2 =f2e2 d2c2 B2A2  | \
w:  ba har  *  *  ol    |  Yü re *  *  ğim  *  ta  | 
d2c2 B2A2 G4 z4  | c2de cdBc A4 z4  | 
w:  ze len *  *  sin    |  ARANAĞME  | 
B2cd BcAB G4 z4  | D2G4A2 B4 c4  | d2c2 B2^A2 B4 z4  | \
w:   |   |   | 
c2de cdBc A4 z4  | 
w:   | 
B2cd BcAB G4 z4  | d2g2 =f2e2 d2c2 B2A2  | \
w:   |   | 
d2c2 B2A2 G8  | 
w:   | 
c2de cdBc A4 z4  | B2cd BcAB G4 z4  | \
w:  ARANAĞME  |   | 
D2G4A2 B4 c4  | 
w:   | 
d2c2 B2^A2 B4 z4  | c2de cdBc A4 z4  | \
w:   |   | 
B2cd BcAB G4 z4  | 
w:   | 
d2g2 =f2e2 d2c2 B2A2  | d2c2 B2A2 G4 D2EF  | \
w:   |   | 
G4 G2G2 G4 A4  | 
w:  *  A çı lan  bir   | 
B2A4G2 B4 z4  | d4 d4 d4 z2B2  | c2c2 B2A2 G2G2 F2E2  | \
w:  gül  *  gi bi    |  Gir  kal be  gö  |  nül  *  gi *  bi    | 
D4 G2G2 G4 A4  | 
w:  *  A çı lan  bir   | 
B2A4G2 B4 z4  | d4 d4 d4 z2B2  | c2c2 B2A2 G4 GABc  | \
w:  gül  *  gi bi    |  Gir  kal be  gö  |  nül  *  gi *  bi    | 
d4 B2c2 d4 d4  | 
w:  *  Co şa rım  sen   | 
g2e4d2 d8  | z2A4B2 c4 c4  | c2d2 c2d2 dcB^A B4  | \
w:  gü ler *  sen    |  Ağ la rım  ben   |  kü ser *  *  sen    | 
z4 B2c2 d4 d4  | 
w:  Co şa rım  sen   | 
g2e4d2 d8  | z2A4B2 c4 B4  | A2G4d2 d4 z4  | \
w:  gü ler *  sen    |  Ağ la rım  ben   |  kü ser *  sen    | 
e4 c2B2 A4 z4  | B2c2 B2A2 G4 z4  | 
w:  Kal bi me  gir   |  ba har  *  *  ol    | 
D2G4A2 B4 c4  | d2d2 c2B2 B4 z4  | e4 c2B2 A4 z4  | \
w:  Yü re *  ğim  ta  |  ze len *  *  sin    |  Kal bi me  gir   | 
B2c2 B2A2 G4 g4  | 
w:  ba har  *  *  ol    | 
g2g2 =f2e2 d2c2 B2A2  | d2c2 B2A2 G4 z4  | |


